svg/color/appon.svg

<svg width="40" height="40" viewBox="0 0 40 40" fill="none" xmlns="http://www.w3.org/2000/svg">
<g clip-path="url(#clip0_821_3969)">
<path d="M20 0C31.0457 0 40 8.9543 40 20C40 31.0457 31.0457 40 20 40C8.95431 40 7.90517e-06 31.0457 0 20C6.58765e-07 8.95431 8.95431 1.97595e-06 20 0Z" fill="#CCEEFF"/>
<path d="M26 6C30.4183 6 34 9.58172 34 14V26C34 30.4183 30.4183 34 26 34H14C9.58172 34 6 30.4183 6 26V14C6 9.58172 9.58172 6 14 6H26Z" fill="#00A9FF"/>
<path d="M19.9982 10.8333C20.6024 10.8343 21.1818 11.0744 21.6091 11.5017C22.0364 11.9289 22.2765 12.5083 22.2775 13.1126C22.2767 13.6072 22.1154 14.0848 21.8226 14.4763L21.8415 14.5111L26.8367 23.504C27.1138 23.387 27.414 23.3248 27.7207 23.3242C28.3247 23.3254 28.9039 23.566 29.3311 23.9932C29.7581 24.4202 29.9988 24.9991 30 25.603C29.999 26.2072 29.7582 26.7867 29.3311 27.2139C28.9039 27.6411 28.3247 27.8817 27.7207 27.8829C27.1165 27.8818 26.5375 27.6411 26.1103 27.2139C25.683 26.7867 25.4423 26.2073 25.4413 25.603C25.4423 25.0979 25.6109 24.6105 25.9158 24.2146C24.2645 23.7998 22.1964 23.5709 20.0667 23.5709C17.7263 23.5709 15.6589 23.7914 14.0758 24.2035C14.3862 24.6014 14.5582 25.0931 14.5592 25.603C14.5582 26.2072 14.318 26.7867 13.8908 27.2139C13.4635 27.6412 12.8841 27.8819 12.2799 27.8829C11.6756 27.8819 11.0962 27.6412 10.6689 27.2139C10.2417 26.7867 10.001 26.2073 10 25.603C10.0012 24.9989 10.2422 24.4197 10.6695 23.9926C11.0967 23.5656 11.6758 23.3252 12.2799 23.3242C12.5776 23.3247 12.8692 23.3835 13.1396 23.494L18.1263 14.5111L18.1569 14.4536C17.8747 14.0665 17.7196 13.5976 17.7188 13.1126C17.72 12.5084 17.9605 11.9293 18.3878 11.5022C18.815 11.0751 19.394 10.8343 19.9982 10.8333ZM12.2799 24.2588C11.9224 24.2593 11.5795 24.4014 11.3268 24.6542C11.0742 24.907 10.9323 25.2499 10.932 25.6072C10.9325 25.9645 11.0747 26.3072 11.3273 26.5598C11.58 26.8124 11.9226 26.9542 12.2799 26.9546C12.6371 26.9541 12.9797 26.8124 13.2324 26.5598C13.485 26.3072 13.6272 25.9645 13.6277 25.6072C13.6275 25.2498 13.4851 24.907 13.2324 24.6542C12.9797 24.4014 12.6372 24.2593 12.2799 24.2588ZM27.7207 24.2588C27.3632 24.2592 27.0204 24.4009 26.7676 24.6537C26.5148 24.9065 26.3725 25.2497 26.3723 25.6072C26.3728 25.9646 26.5154 26.3071 26.7681 26.5598C27.0209 26.8124 27.3634 26.9543 27.7207 26.9546C28.078 26.9542 28.4211 26.8125 28.6737 26.5598C28.9263 26.3072 29.0681 25.9645 29.0686 25.6072C29.0683 25.2499 28.9264 24.907 28.6737 24.6542C28.421 24.4014 28.0781 24.2593 27.7207 24.2588ZM18.8917 15.1173L14.4343 23.1413C15.9381 22.7921 17.879 22.6057 20.0635 22.6057C22.045 22.6058 23.9785 22.7958 25.5331 23.1439L21.0767 15.1189C20.748 15.2958 20.3781 15.3913 19.9982 15.3919C19.6096 15.3913 19.2316 15.2914 18.8975 15.1067L18.8917 15.1173ZM19.9982 11.7673C19.6408 11.7678 19.2983 11.91 19.0456 12.1627C18.793 12.4153 18.6507 12.7579 18.6503 13.1152C18.6507 13.4725 18.793 13.8151 19.0456 14.0677C19.2983 14.3204 19.6408 14.4627 19.9982 14.4631C20.3555 14.4627 20.698 14.3204 20.9507 14.0677C21.2033 13.8151 21.3456 13.4725 21.346 13.1152C21.3465 12.9382 21.3118 12.7628 21.2443 12.5992C21.1767 12.4354 21.0775 12.2864 20.9523 12.1611C20.8271 12.0359 20.6784 11.9366 20.5147 11.8691C20.351 11.8015 20.1753 11.7668 19.9982 11.7673Z" fill="white"/>
</g>
<defs>
<clipPath id="clip0_821_3969">
<rect width="40" height="40" fill="white"/>
</clipPath>
</defs>
</svg>

<svg xmlns="http://www.w3.org/2000/svg" width="40" height="40" fill="none" viewBox="0 0 40 40"><g clip-path="url(#appon_svg-a)"><path fill="#CEF" d="M20 0c11.046 0 20 8.954 20 20s-8.954 20-20 20S0 31.046 0 20 8.954 0 20 0"/><path fill="#00A9FF" d="M26 6a8 8 0 0 1 8 8v12a8 8 0 0 1-8 8H14a8 8 0 0 1-8-8V14a8 8 0 0 1 8-8z"/><path fill="#fff" d="M19.998 10.833a2.283 2.283 0 0 1 2.28 2.28 2.3 2.3 0 0 1-.455 1.363l.018.035 4.996 8.993c.277-.117.577-.18.884-.18A2.284 2.284 0 0 1 30 25.603a2.284 2.284 0 0 1-2.28 2.28 2.283 2.283 0 0 1-2.279-2.28 2.28 2.28 0 0 1 .475-1.388c-1.651-.415-3.72-.644-5.85-.644-2.34 0-4.407.22-5.99.632.31.398.482.89.483 1.4a2.284 2.284 0 0 1-2.28 2.28A2.284 2.284 0 0 1 10 25.603a2.284 2.284 0 0 1 2.28-2.279c.298 0 .59.06.86.17l4.986-8.983.03-.057a2.3 2.3 0 0 1-.437-1.341 2.283 2.283 0 0 1 2.28-2.28M12.28 24.26a1.35 1.35 0 0 0-1.348 1.348 1.35 1.35 0 0 0 1.348 1.348 1.35 1.35 0 0 0 1.348-1.348 1.35 1.35 0 0 0-1.348-1.348m15.44 0a1.35 1.35 0 0 0-1.348 1.348 1.35 1.35 0 0 0 2.302.953 1.35 1.35 0 0 0 0-1.906 1.35 1.35 0 0 0-.953-.395m-8.828-9.142-4.458 8.024c1.504-.349 3.445-.535 5.63-.535 1.981 0 3.915.19 5.47.538l-4.457-8.025a2.3 2.3 0 0 1-1.079.273c-.388 0-.766-.1-1.1-.285zm1.106-3.35a1.35 1.35 0 0 0-1.348 1.348 1.35 1.35 0 0 0 2.3.953 1.35 1.35 0 0 0-.435-2.199 1.3 1.3 0 0 0-.517-.102"/></g><defs><clipPath id="appon_svg-a"><path fill="#fff" d="M0 0h40v40H0z"/></clipPath></defs></svg>
